; generated by Slic3r 1.2.9 on 2016-03-15 at 21:05:47

; external perimeters extrusion width = 0.50mm
; perimeters extrusion width = 0.72mm
; infill extrusion width = 0.72mm
; solid infill extrusion width = 0.72mm
; top infill extrusion width = 0.72mm
; support material extrusion width = 0.50mm

M107
M104 S200 ; set temperature
G28 ; home all axes
G1 Z5 F5000 ; lift nozzle

M109 S200 ; wait for temperature to be reached
G21 ; set units to millimeters
G90 ; use absolute coordinates
M82 ; use absolute distances for extrusion
G92 E0
G1 Z0.350 F7800.000
G1 E-2.00000 F2400.00000
G92 E0
G1 X90.578 Y93.068 F7800.000
G1 E2.00000 F2400.00000
G1 X91.446 Y92.337 E2.03512 F1800.000
G1 X92.285 Y91.745 E2.06689
G1 X94.913 Y90.643 E2.15505
G1 X97.122 Y90.254 E2.22444
G1 X107.022 Y89.091 E2.53288
G1 X109.312 Y89.222 E2.60385
G1 X111.420 Y90.126 E2.67481 F1800.000
G1 X113.093 Y91.694 E2.74577
G1 X114.343 Y94.670 E2.84563
G1 X114.997 Y98.944 E2.97941
G1 X115.071 Y99.770 E3.00507
G1 X115.098 Y100.797 E3.03687
G1 X114.761 Y103.066 E3.10783
G1 X113.671 Y105.083 E3.17879
G1 X111.958 Y106.608 E3.24976
G1 X110.349 Y107.327 E3.30427
G1 X109.713 Y107.515 E3.32480
G1 X104.803 Y108.688 E3.48099
G1 X103.831 Y108.843 E3.51145
G1 X102.751 Y108.911 E3.54493
G1 X96.796 Y108.921 E3.72919
G1 X95.463 Y108.788 E3.77064
G1 X94.970 Y108.688 E3.78620
G1 X93.601 Y108.250 E3.83068
G1 X93.157 Y108.052 E3.84571
G1 X92.413 Y107.663 E3.87170
G1 X91.997 Y107.411 E3.88676
G1 X91.115 Y106.771 E3.92046
G1 X90.735 Y106.445 E3.93594
G1 X89.278 Y104.667 E4.00707
G1 X88.991 Y104.157 E4.02519
G1 X88.411 Y102.783 E4.07133
G1 X88.210 Y102.101 E4.09333
G1 X87.939 Y100.228 E4.15190
G1 X88.043 Y99.063 E4.18808
G1 X88.343 Y97.380 E4.24098
G1 X88.714 Y96.084 E4.28267
G1 X88.942 Y95.576 E4.29991
G1 X89.339 Y94.784 E4.32735
G1 X90.534 Y93.128 E4.39050
G1 E2.39050 F2400.00000
G92 E0
G1 X95.262 Y97.752 F7800.000
G1 E2.00000 F2400.00000
G1 X94.865 Y98.545 E2.01866 F1800.000
G1 X94.564 Y100.228 F7800.000
G1 X96.101 Y97.161 E2.09083 F1800.000
G1 X96.673 Y97.103 E2.10292
G1 X94.765 Y100.910 E2.19250
G1 X95.052 Y101.420 E2.20483
G1 X97.203 Y97.130 E2.30578
G1 X97.894 Y96.834 E2.32161
G1 X95.432 Y101.746 E2.43722
G1 X95.848 Y101.999 E2.44746
G1 X98.213 Y97.281 E2.55848
G1 X98.531 Y97.729 E2.57003
G1 X96.292 Y102.196 E2.67516
G1 X96.785 Y102.296 E2.68574
G1 X98.817 Y98.241 E2.78117
G1 X99.083 Y98.795 E2.79409
G1 X97.335 Y102.282 E2.87616
G1 X97.936 Y102.165 E2.88905
G1 X99.282 Y99.480 E2.95225
G1 X99.258 Y100.611 F7800.000
G1 X98.962 Y101.201 E2.96614 F1800.000
G1 X100.564 Y100.477 F7800.000
G1 X102.372 Y96.868 E3.05106 F1800.000
G1 X102.762 Y97.115 E3.06078
G1 X100.750 Y101.131 E3.15528
G1 X101.040 Y101.576 E3.16647
G1 X103.427 Y96.813 E3.27854
G1 X104.137 Y96.424 E3.29557
G1 X101.382 Y101.920 E3.42492
G1 X101.780 Y102.150 E3.43460
G1 X104.382 Y96.960 E3.55675
G1 X104.627 Y97.496 E3.56915
G1 X102.243 Y102.251 E3.68107
G1 X102.740 Y102.286 E3.69153
G1 X104.872 Y98.032 E3.79166
G1 X105.105 Y98.592 E3.80443
G1 X103.276 Y102.241 E3.89030
G1 X103.908 Y102.005 E3.90450
G1 X105.291 Y99.246 E3.96944
G1 X105.165 Y100.523 F7800.000
G1 X104.756 Y101.339 E3.98864 F1800.000
G1 E1.98864 F2400.00000
G92 E0
G1 X100.822 Y98.935 F7800.000
G1 E2.00000 F2400.00000
G1 X101.343 Y97.897 E2.02444 F1800.000
G1 E0.02444 F2400.00000
G92 E0
G1 X100.614 Y101.630 F7800.000
G1 E2.00000 F2400.00000
G1 X100.414 Y102.028 E2.01378 F1800.000
G1 E0.01378 F2400.00000
G92 E0
G1 X107.839 Y101.160 F7800.000
G1 E2.00000 F2400.00000
G1 X108.448 Y99.945 E2.04205 F1800.000
G1 X108.121 Y97.808 E2.10894
G1 X106.441 Y101.160 E2.22496
G1 X105.650 Y99.950 E2.26970
G1 X107.795 Y95.671 E2.41779
G1 Z0.730 F7800.000
G1 E0.41779 F2400.00000
G92 E0
G1 X105.291 Y99.247 F7800.000
G1 E2.00000 F2400.00000
G1 X103.909 Y102.003 E2.06935 F1503.069
G1 X103.277 Y102.239 E2.08453
G1 X105.104 Y98.594 E2.17626
G1 X104.871 Y98.033 E2.18992
G1 X102.741 Y102.284 E2.29689
G1 X102.244 Y102.250 E2.30809
G1 X104.626 Y97.497 E2.42767
G1 X104.381 Y96.961 E2.44093
G1 X101.781 Y102.148 E2.57145
G1 X101.383 Y101.918 E2.58180
G1 X104.136 Y96.425 E2.72002
G1 X103.426 Y96.815 E2.73823
G1 X101.041 Y101.574 E2.85798
G1 X100.750 Y101.129 E2.86994
G1 X102.761 Y97.117 E2.97090
G1 X102.371 Y96.869 E2.98129
G1 X100.564 Y100.475 E3.07201
G1 X99.258 Y100.611 F7800.000
G1 X98.962 Y101.201 E3.08686 F1503.069
G1 X99.282 Y99.480 F7800.000
G1 X97.936 Y102.165 E3.15444 F1503.069
G1 X97.335 Y102.282 E3.16822
G1 X99.083 Y98.795 E3.25598
G1 X98.817 Y98.241 E3.26979
G1 X96.785 Y102.296 E3.37183
G1 X96.292 Y102.196 E3.38314
G1 X98.531 Y97.729 E3.49555
G1 X98.213 Y97.281 E3.50791
G1 X95.848 Y101.999 E3.62661
G1 X95.432 Y101.746 E3.63757
G1 X97.894 Y96.834 E3.76118
G1 X97.203 Y97.130 E3.77810
G1 X95.052 Y101.420 E3.88605
G1 X94.765 Y100.910 E3.89923
G1 X96.673 Y97.103 E3.99501
G1 X96.101 Y97.161 E4.00794
G1 X94.564 Y100.228 E4.08512
G1 X94.865 Y98.545 F7800.000
G1 X95.262 Y97.752 E4.10507 F1503.069
G1 E2.10507 F2400.00000
G92 E0
G1 X100.823 Y98.934 F7800.000
G1 E2.00000 F2400.00000
G1 X101.342 Y97.899 E2.02605 F1503.069
G1 E0.02605 F2400.00000
G92 E0
G1 X105.164 Y100.524 F7800.000
G1 E2.00000 F2400.00000
G1 X104.757 Y101.337 E2.02045 F1503.069
G1 E0.02045 F2400.00000
G92 E0
G1 X107.988 Y100.554 F7800.000
G1 E2.00000 F2400.00000
G1 X107.763 Y99.081 E2.03353 F1503.069
G1 X106.091 Y99.081 E2.07114
G1 X106.161 Y99.370 E2.07784
G1 X106.176 Y99.908 E2.08993
G1 X106.084 Y100.554 E2.10462
G1 X107.988 Y100.554 E2.14745
G1 X108.476 Y100.973 F7800.000
G1 X107.688 Y95.821 E2.26469 F1503.069
G1 X105.497 Y98.537 E2.34318
G1 X105.610 Y98.872 E2.35112
G1 X105.744 Y99.426 E2.36395
G1 X105.757 Y99.884 E2.37426
G1 X105.677 Y100.452 E2.38715
G1 X105.509 Y100.916 E2.39827
G1 X105.810 Y100.973 E2.40515
G1 X108.476 Y100.973 E2.46512
G1 X107.696 Y98.645 F7800.000
G1 X107.418 Y96.823 E2.50659 F1503.069
G1 X105.970 Y98.618 E2.55846
G1 X105.979 Y98.645 E2.55912
G1 X107.696 Y98.645 E2.59776
G1 E0.59776 F2400.00000
G92 E0
G1 X100.015 Y101.358 F7800.000
G1 E2.00000 F2400.00000
G1 X99.985 Y101.335 E2.00086 F1503.069
G1 X99.587 Y101.620 E2.01186
G1 X99.631 Y101.734 E2.01462
G1 X99.376 Y101.844 E2.02087
G1 X100.006 Y101.782 E2.03510
G1 X100.610 Y101.854 E2.04878
G1 X100.332 Y101.734 E2.05558
G1 X100.377 Y101.620 E2.05833
G1 X100.015 Y101.358 E2.06837
G1 Z1.100 F7800.000
G1 X100.564 Y100.475 F7800.000
G1 X102.372 Y96.869 E2.15719 F1502.875
G1 X102.762 Y97.116 E2.16736
G1 X100.750 Y101.130 E2.26619
G1 X101.041 Y101.575 E2.27790
G1 X103.427 Y96.815 E2.39512
G1 X104.136 Y96.425 E2.41294
G1 X101.382 Y101.919 E2.54824
G1 X101.781 Y102.149 E2.55838
G1 X104.381 Y96.961 E2.68615
G1 X104.626 Y97.497 E2.69912
G1 X102.244 Y102.250 E2.81618
G1 X102.740 Y102.285 E2.82714
G1 X104.872 Y98.033 E2.93186
G1 X105.105 Y98.593 E2.94522
G1 X103.277 Y102.240 E3.03503
G1 X103.909 Y102.004 E3.04988
G1 X105.291 Y99.247 E3.11778
G1 X105.165 Y100.524 F7800.000
G1 X104.757 Y101.338 E3.13783 F1502.875
G1 E1.13783 F2400.00000
G92 E0
G1 X100.823 Y98.934 F7800.000
G1 E2.00000 F2400.00000
G1 X101.342 Y97.898 E2.02552 F1502.875
G1 E0.02552 F2400.00000
G92 E0
G1 X99.282 Y99.480 F7800.000
G1 E2.00000 F2400.00000
G1 X97.936 Y102.165 E2.06614 F1502.875
G1 X97.335 Y102.282 E2.07963
G1 X99.083 Y98.795 E2.16552
G1 X98.817 Y98.241 E2.17903
G1 X96.785 Y102.296 E2.27890
G1 X96.292 Y102.196 E2.28997
G1 X98.531 Y97.729 E2.39998
G1 X98.213 Y97.281 E2.41207
G1 X95.848 Y101.999 E2.52825
G1 X95.432 Y101.746 E2.53897
G1 X97.894 Y96.834 E2.65994
G1 X97.203 Y97.130 E2.67651
G1 X95.052 Y101.420 E2.78216
G1 X94.765 Y100.910 E2.79505
G1 X96.673 Y97.103 E2.88879
G1 X96.101 Y97.161 E2.90145
G1 X94.564 Y100.228 E2.97698
G1 X94.865 Y98.545 F7800.000
G1 X95.262 Y97.752 E2.99650 F1502.875
G1 E0.99650 F2400.00000
G92 E0
G1 X99.258 Y100.611 F7800.000
G1 E2.00000 F2400.00000
G1 X98.962 Y101.201 E2.01453 F1502.875
G1 X100.015 Y101.358 F7800.000
G1 X99.985 Y101.335 E2.01537 F1502.875
G1 X99.587 Y101.620 E2.02613
G1 X99.631 Y101.734 E2.02883
G1 X99.376 Y101.844 E2.03495
G1 X100.006 Y101.782 E2.04888
G1 X100.610 Y101.854 E2.06227
G1 X100.332 Y101.734 E2.06892
G1 X100.377 Y101.620 E2.07162
G1 X100.015 Y101.358 E2.08144
G1 E0.08144 F2400.00000
G92 E0
G1 X107.986 Y100.552 F7800.000
G1 E2.00000 F2400.00000
G1 X107.761 Y99.081 E2.03277 F1502.875
G1 X106.093 Y99.081 E2.06948
G1 X106.164 Y99.370 E2.07603
G1 X106.178 Y99.908 E2.08787
G1 X106.087 Y100.552 E2.10220
G1 X107.986 Y100.552 E2.14399
G1 X108.476 Y100.973 F7800.000
G1 X107.688 Y95.821 E2.25873 F1502.875
G1 X105.497 Y98.537 E2.33555
G1 X105.610 Y98.872 E2.34332
G1 X105.744 Y99.426 E2.35588
G1 X105.757 Y99.884 E2.36597
G1 X105.677 Y100.452 E2.37858
G1 X105.509 Y100.916 E2.38946
G1 X105.810 Y100.973 E2.39620
G1 X108.476 Y100.973 E2.45488
G1 X107.694 Y98.645 F7800.000
G1 X107.416 Y96.828 E2.49536 F1502.875
G1 X105.973 Y98.618 E2.54599
G1 X105.981 Y98.645 E2.54662
G1 X107.694 Y98.645 E2.58434
M106 S255
G1 Z1.600 F7800.000
G1 X106.611 Y97.473 F7800.000
G1 X106.611 Y97.156 E2.59313 F886.106
G1 X106.356 Y97.473 E2.60441
G1 X106.611 Y97.473 E2.61150
G1 E0.61150 F2400.00000
G92 E0
G1 X100.015 Y101.358 F7800.000
G1 E2.00000 F2400.00000
G1 X99.985 Y101.335 E2.00106 F886.106
G1 X99.587 Y101.620 E2.01465
G1 X99.631 Y101.734 E2.01805
G1 X99.376 Y101.844 E2.02577
G1 X100.006 Y101.782 E2.04335
G1 X100.610 Y101.854 E2.06024
G1 X100.332 Y101.734 E2.06863
G1 X100.377 Y101.620 E2.07203
G1 X100.015 Y101.358 E2.08443
G1 Z1.800 F7800.000
G1 E0.08443 F2400.00000
G92 E0
G1 X103.250 Y100.059 F7800.000
G1 E2.00000 F2400.00000
M106 S255
G1 X103.085 Y100.178 E2.00567 F900.000
G1 X102.900 Y100.248 E2.01116
G1 X102.705 Y100.246 E2.01657
G1 X102.545 Y100.216 E2.02110
G1 X102.549 Y99.924 E2.02920
G1 X102.678 Y99.510 E2.04124
G1 X102.769 Y99.358 E2.04617
G1 X103.140 Y99.088 E2.05891
G1 X103.292 Y99.519 E2.07160
G1 X103.347 Y99.747 E2.07815
G1 X103.330 Y99.870 E2.08158
G1 X103.279 Y99.990 E2.08520
M106 S255
G1 X103.471 Y98.863 F7800.000
M106 S255
G1 X103.681 Y99.403 E2.10129 F900.000
G1 X103.751 Y99.692 E2.10955
G1 X103.724 Y99.979 E2.11756
G1 X103.582 Y100.316 E2.12772
G1 X103.337 Y100.502 E2.13625
G1 X103.011 Y100.639 E2.14608
G1 X102.665 Y100.651 E2.15569
G1 X102.376 Y100.596 E2.16387
G1 X102.241 Y100.457 E2.16924
G1 X102.143 Y100.290 E2.17463
G1 X102.132 Y100.053 E2.18122
G1 X102.149 Y99.853 E2.18679
G1 X102.309 Y99.338 E2.20179
G1 X102.464 Y99.078 E2.21018
G1 X102.524 Y98.926 E2.21473
G1 X102.611 Y98.972 E2.21745
G1 X102.925 Y98.742 E2.22826
G1 X103.349 Y98.733 E2.24002
G1 X103.420 Y98.808 E2.24290
M106 S255
G1 E0.24290 F2400.00000
G92 E0
G1 X97.006 Y99.175 F7800.000
G1 E2.00000 F2400.00000
M106 S255
G1 X97.183 Y99.500 E2.01027 F900.000
G1 X97.319 Y99.935 E2.02295
G1 X97.322 Y100.215 E2.03070
G1 X97.162 Y100.245 E2.03524
G1 X96.968 Y100.247 E2.04064
G1 X96.782 Y100.177 E2.04613
G1 X96.617 Y100.058 E2.05180
G1 X96.537 Y99.869 E2.05750
G1 X96.520 Y99.747 E2.06094
G1 X96.575 Y99.518 E2.06748
G1 X96.708 Y99.143 E2.07852
G1 X96.931 Y99.167 E2.08477
M106 S255
G1 X97.207 Y98.790 F7800.000
M106 S255
G1 X97.324 Y98.877 E2.08881 F900.000
G1 X97.403 Y99.078 E2.09481
G1 X97.556 Y99.333 E2.10308
G1 X97.719 Y99.857 E2.11832
G1 X97.736 Y100.052 E2.12376
G1 X97.725 Y100.289 E2.13035
G1 X97.626 Y100.456 E2.13574
G1 X97.491 Y100.595 E2.14111
G1 X97.202 Y100.650 E2.14929
G1 X96.950 Y100.652 E2.15630
G1 X96.857 Y100.638 E2.15892
G1 X96.613 Y100.547 E2.16614
G1 X96.286 Y100.315 E2.17729
G1 X96.143 Y99.978 E2.18745
G1 X96.116 Y99.691 E2.19545
G1 X96.186 Y99.402 E2.20371
G1 X96.309 Y99.055 E2.21393
G1 X96.437 Y98.771 E2.22259
G1 X96.773 Y98.742 E2.23195
G1 X97.133 Y98.781 E2.24200
M106 S255
G1 Z2.100 F7800.000
G1 E0.24200 F2400.00000
G92 E0
G1 X102.438 Y98.758 F7800.000
G1 E2.00000 F2400.00000
G1 X102.995 Y98.732 E2.01030 F600.000
G1 X103.227 Y98.783 E2.01469
G1 X103.396 Y99.425 E2.02697
G1 X103.422 Y99.703 E2.03214
G1 X103.404 Y99.881 E2.03544
G1 X103.243 Y100.027 E2.03946
G1 X102.865 Y100.260 E2.04767
G1 X102.557 Y100.365 E2.05368
G1 X102.422 Y100.306 E2.05641
G1 X102.345 Y100.142 E2.05976
G1 X102.319 Y100.015 E2.06216
G1 X102.431 Y98.833 E2.08412
G1 X102.871 Y99.008 F7800.000
G1 E0.08412 F2400.00000
G92 E0
G1 X97.439 Y98.807 F7800.000
G1 E2.00000 F2400.00000
G1 X97.541 Y99.764 E2.01781 F600.000
G1 X97.547 Y100.019 E2.02251
G1 X97.522 Y100.141 E2.02482
G1 X97.445 Y100.307 E2.02820
G1 X97.316 Y100.363 E2.03079
G1 X97.003 Y100.259 E2.03690
G1 X96.575 Y99.989 E2.04626
G1 X96.463 Y99.872 E2.04925
G1 X96.445 Y99.702 E2.05242
G1 X96.471 Y99.423 E2.05759
G1 X96.616 Y98.870 E2.06817
G1 X97.046 Y98.821 E2.07618
G1 X97.364 Y98.810 E2.08205
G1 X97.226 Y99.259 F7800.000
G1 Z2.100 F7800.000
G1 E0.08205 F2400.00000
G92 E0
G1 X100.015 Y101.358 F7800.000
G1 E2.00000 F2400.00000
G1 X99.985 Y101.335 E2.00106 F600.000
G1 X99.587 Y101.620 E2.01465
G1 X99.631 Y101.734 E2.01805
G1 X99.376 Y101.844 E2.02577
G1 X100.006 Y101.782 E2.04335
G1 X100.610 Y101.854 E2.06024
G1 X100.332 Y101.734 E2.06863
G1 X100.377 Y101.620 E2.07203
G1 X100.015 Y101.358 E2.08443
G1 E0.08443 F2400.00000
G92 E0
G1 X106.611 Y97.473 F7800.000
G1 E2.00000 F2400.00000
G1 X106.611 Y97.156 E2.00879 F600.000
G1 X106.356 Y97.473 E2.02007
G1 X106.611 Y97.473 E2.02716
G1 Z2.400 F7800.000
G1 E0.02716 F2400.00000
G92 E0
G1 X102.560 Y98.749 F7800.000
G1 E2.00000 F2400.00000
G1 X102.779 Y98.739 E2.00404 F600.000
G1 X103.011 Y98.789 E2.00843
G1 X103.030 Y98.954 E2.01150
G1 X102.967 Y99.268 E2.01743
G1 X102.649 Y99.492 E2.02463
G1 X102.580 Y99.259 E2.02911
G1 X102.560 Y98.824 E2.03717
G1 X102.754 Y98.850 F7800.000
G1 E0.03717 F2400.00000
G92 E0
G1 X97.298 Y98.916 F7800.000
G1 E2.00000 F2400.00000
G1 X97.256 Y99.519 E2.01117 F600.000
G1 X96.914 Y99.280 E2.01888
G1 X96.885 Y99.223 E2.02006
G1 X96.786 Y98.735 E2.02927
G1 X97.228 Y98.891 E2.03793
G1 X96.982 Y99.304 F7800.000
G1 Z2.400 F7800.000
G1 E0.03793 F2400.00000
G92 E0
G1 X100.015 Y101.358 F7800.000
G1 E2.00000 F2400.00000
G1 X99.985 Y101.335 E2.00071 F600.000
G1 X99.587 Y101.620 E2.00975
G1 X99.631 Y101.734 E2.01201
G1 X99.376 Y101.844 E2.01715
G1 X100.006 Y101.782 E2.02885
G1 X100.610 Y101.854 E2.04009
G1 X100.332 Y101.734 E2.04568
G1 X100.377 Y101.620 E2.04794
G1 X100.015 Y101.358 E2.05619
G1 E0.05619 F2400.00000
G92 E0
G1 X106.611 Y97.473 F7800.000
G1 E2.00000 F2400.00000
G1 X106.611 Y97.156 E2.00585 F600.000
G1 X106.356 Y97.473 E2.01336
G1 X106.611 Y97.473 E2.01807
G1 Z2.700 F7800.000
G1 Z2.700 F7800.000
G1 X106.356 Y97.473 E2.02279 F600.000
G1 X106.611 Y97.156 E2.03030
G1 X106.611 Y97.473 E2.03615
G1 E0.03615 F2400.00000
G92 E0
G1 X100.015 Y101.358 F7800.000
G1 E2.00000 F2400.00000
G1 X99.985 Y101.335 E2.00071 F600.000
G1 X99.587 Y101.620 E2.00975
G1 X99.631 Y101.734 E2.01201
G1 X99.376 Y101.844 E2.01715
G1 X100.006 Y101.782 E2.02885
G1 X100.610 Y101.854 E2.04009
G1 X100.332 Y101.734 E2.04568
G1 X100.377 Y101.620 E2.04794
G1 X100.015 Y101.358 E2.05619
G1 Z2.800 F7800.000
G1 X100.377 Y101.620 E2.05922 F600.000
G1 X100.332 Y101.734 E2.06004
G1 X100.610 Y101.854 E2.06209
G1 X100.006 Y101.782 E2.06621
G1 X99.376 Y101.844 E2.07049
G1 X99.631 Y101.734 E2.07237
G1 X99.587 Y101.620 E2.07320
G1 X99.985 Y101.335 E2.07651
G1 X100.015 Y101.358 E2.07677
G1 E0.07677 F2400.00000
G92 E0
G1 X106.611 Y97.473 F7800.000
G1 E2.00000 F2400.00000
G1 X106.611 Y97.156 E2.00214 F600.000
G1 X106.356 Y97.473 E2.00489
G1 X106.611 Y97.473 E2.00662
G1 Z3.000 F7800.000
G1 Z3.100 F7800.000
G1 X106.356 Y97.473 E2.01133 F600.000
G1 X106.611 Y97.156 E2.01885
G1 X106.611 Y97.473 E2.02469
G1 E0.02469 F2400.00000
G92 E0
G1 X100.015 Y101.358 F7800.000
G1 E2.00000 F2400.00000
G1 X99.985 Y101.335 E2.00071 F600.000
G1 X99.587 Y101.620 E2.00975
G1 X99.631 Y101.734 E2.01201
G1 X99.376 Y101.844 E2.01715
G1 X100.006 Y101.782 E2.02885
G1 X100.610 Y101.854 E2.04009
G1 X100.332 Y101.734 E2.04568
G1 X100.377 Y101.620 E2.04794
G1 X100.015 Y101.358 E2.05619
G1 Z3.300 F7800.000
G1 Z3.400 F7800.000
G1 X100.377 Y101.620 E2.06445 F600.000
G1 X100.332 Y101.734 E2.06671
G1 X100.610 Y101.854 E2.07229
G1 X100.006 Y101.782 E2.08354
G1 X99.376 Y101.844 E2.09524
G1 X99.631 Y101.734 E2.10037
G1 X99.587 Y101.620 E2.10264
