; generated by Slic3r 1.2.9 on 2016-03-22 at 16:13:22

; external perimeters extrusion width = 0.50mm
; perimeters extrusion width = 0.72mm
; infill extrusion width = 0.72mm
; solid infill extrusion width = 0.72mm
; top infill extrusion width = 0.72mm
; support material extrusion width = 0.50mm

M107
M104 S200 ; set temperature
G28 ; home all axes
G1 Z5 F5000 ; lift nozzle

M109 S200 ; wait for temperature to be reached
G21 ; set units to millimeters
G90 ; use absolute coordinates
M82 ; use absolute distances for extrusion
G92 E0
G1 Z0.350 F7800.000
G1 E-2.00000 F2400.00000
G92 E0
G1 X91.560 Y92.330 F7800.000
G1 E2.00000 F2400.00000
G1 X92.491 Y91.503 E2.03854 F1800.000
G1 X95.177 Y90.055 E2.13296
G1 X95.773 Y89.895 E2.15205
G1 X97.516 Y89.669 E2.20644
G1 X102.245 Y89.688 E2.35277
G1 X102.972 Y89.715 E2.37528 F1800.000
G1 X104.533 Y89.972 E2.42420
G1 X104.948 Y90.092 E2.43758
G1 X106.565 Y90.808 E2.49230
G1 X106.928 Y91.031 E2.50551
G1 X108.119 Y91.965 E2.55232
G1 X108.795 Y92.662 E2.58237
G1 X109.096 Y93.011 E2.59661
G1 X110.437 Y95.471 E2.68329
G1 X111.318 Y98.624 E2.78459
G1 X111.521 Y101.070 E2.86055
G1 X111.397 Y102.267 E2.89778
G1 X110.731 Y104.549 E2.97134
G1 X110.334 Y105.342 E2.99880
G1 X108.540 Y107.554 E3.08691
G1 X107.748 Y108.186 E3.11824
G1 X106.029 Y109.176 E3.17965
G1 X105.437 Y109.407 E3.19928
G1 X103.674 Y109.829 E3.25539
G1 X103.174 Y109.878 E3.27094
G1 X102.528 Y109.910 E3.29093
G1 X97.082 Y109.910 E3.45946
G1 X95.829 Y109.791 E3.49839
G1 X95.359 Y109.700 E3.51322
G1 X93.922 Y109.250 E3.55979
G1 X93.500 Y109.062 E3.57408
G1 X92.806 Y108.704 E3.59825
G1 X92.408 Y108.468 E3.61256
G1 X91.498 Y107.817 E3.64720
G1 X91.136 Y107.509 E3.66189
G1 X89.706 Y105.800 E3.73085
G1 X89.428 Y105.324 E3.74790
G1 X88.832 Y103.975 E3.79353
G1 X88.633 Y103.343 E3.81405
G1 X88.382 Y100.510 E3.90204
G1 X88.560 Y99.125 E3.94525
G1 X88.724 Y98.281 E3.97186
G1 X89.297 Y96.108 E4.04139
G1 X89.781 Y94.829 E4.08370
G1 X90.039 Y94.313 E4.10156
G1 X91.514 Y92.390 E4.17655
G1 E2.17655 F2400.00000
G92 E0
G1 X95.962 Y97.281 F7800.000
G1 E2.00000 F2400.00000
G1 X95.703 Y97.797 E2.01214 F1800.000
G1 X96.893 Y96.453 F7800.000
G1 X95.130 Y99.970 E2.09490 F1800.000
G1 X94.952 Y101.355 F7800.000
G1 X97.489 Y96.294 E2.21400 F1800.000
G1 X97.983 Y96.337 E2.22444
G1 X95.151 Y101.987 E2.35740
G1 X95.429 Y102.463 E2.36899
G1 X98.420 Y96.496 E2.50943
G1 X98.808 Y96.751 E2.51921
G1 X95.791 Y102.771 E2.66087
G1 X96.188 Y103.007 E2.67060
G1 X99.133 Y97.133 E2.80885
G1 X99.354 Y97.720 E2.82205
G1 X96.610 Y103.195 E2.95089
G1 X97.081 Y103.285 E2.96097
G1 X99.363 Y98.733 E3.06810
G1 X99.275 Y99.938 F7800.000
G1 X97.605 Y103.270 E3.14650 F1800.000
G1 X98.177 Y103.158 E3.15877
G1 X99.464 Y100.590 E3.21920
G1 X99.438 Y101.671 F7800.000
G1 X99.152 Y102.242 E3.23265 F1800.000
G1 E1.23265 F2400.00000
G92 E0
G1 X100.628 Y97.588 F7800.000
G1 E2.00000 F2400.00000
G1 X100.845 Y97.156 E2.01016 F1800.000
G1 X101.676 Y96.445 F7800.000
G1 X100.488 Y98.815 E2.06593 F1800.000
G1 X100.650 Y99.441 E2.07953
G1 X102.218 Y96.313 E2.15314
G1 X102.683 Y96.333 E2.16294
G1 X100.408 Y100.872 E2.26976
G1 X100.423 Y101.793 E2.28912
G1 X103.099 Y96.454 E2.41476
G1 X103.462 Y96.677 E2.42374
G1 X100.645 Y102.297 E2.55600
G1 X100.927 Y102.685 E2.56607
G1 X103.780 Y96.991 E2.70005
G1 X104.081 Y97.340 E2.70973
G1 X101.254 Y102.981 E2.84248
G1 X101.635 Y103.169 E2.85143
G1 X104.257 Y97.938 E2.97452
G1 X104.346 Y98.708 E2.99083
G1 X102.065 Y103.260 E3.09796
G1 X102.528 Y103.285 E3.10772
G1 X104.547 Y99.256 E3.20253
G1 X104.761 Y99.777 E3.21438
G1 X103.028 Y103.236 E3.29578
G1 X103.619 Y103.005 E3.30913
G1 X104.932 Y100.385 E3.37077
G1 X104.808 Y101.582 F7800.000
G1 X104.411 Y102.374 E3.38940 F1800.000
G1 Z0.730 F7800.000
G1 X104.412 Y102.372 F7800.000
G1 X104.807 Y101.584 E3.40924 F1494.937
G1 X104.931 Y100.387 F7800.000
G1 X103.620 Y103.003 E3.47507 F1494.937
G1 X103.029 Y103.234 E3.48934
G1 X104.761 Y99.779 E3.57629
G1 X104.546 Y99.258 E3.58896
G1 X102.529 Y103.283 E3.69025
G1 X102.066 Y103.258 E3.70068
G1 X104.346 Y98.709 E3.81515
G1 X104.256 Y97.939 E3.83258
G1 X101.636 Y103.167 E3.96412
G1 X101.255 Y102.979 E3.97369
G1 X104.080 Y97.342 E4.11554
G1 X103.779 Y96.993 E4.12590
G1 X100.928 Y102.683 E4.26907
G1 X100.646 Y102.296 E4.27984
G1 X103.461 Y96.679 E4.42118
G1 X103.098 Y96.456 E4.43077
G1 X100.424 Y101.791 E4.56502
G1 X100.409 Y100.871 E4.58573
G1 X102.683 Y96.335 E4.69986
G1 X102.217 Y96.315 E4.71034
G1 X100.651 Y99.439 E4.78896
G1 X100.489 Y98.814 E4.80350
G1 X101.675 Y96.447 E4.86305
G1 X100.844 Y97.158 F7800.000
G1 X100.629 Y97.586 E4.87383 F1494.937
G1 X99.363 Y98.733 F7800.000
G1 X97.081 Y103.285 E4.98837 F1494.937
G1 X96.610 Y103.195 E4.99915
G1 X99.354 Y97.720 E5.13692
G1 X99.133 Y97.133 E5.15103
G1 X96.188 Y103.007 E5.29886
G1 X95.791 Y102.771 E5.30926
G1 X98.808 Y96.751 E5.46074
G1 X98.420 Y96.496 E5.47119
G1 X95.429 Y102.463 E5.62135
G1 X95.151 Y101.987 E5.63375
G1 X97.983 Y96.337 E5.77592
G1 X97.489 Y96.294 E5.78708
G1 X94.952 Y101.355 E5.91443
G1 X95.130 Y99.970 F7800.000
G1 X96.893 Y96.453 E6.00292 F1494.937
G1 X95.962 Y97.281 F7800.000
G1 X95.703 Y97.797 E6.01590 F1494.937
G1 E4.01590 F2400.00000
G92 E0
G1 X99.275 Y99.938 F7800.000
G1 E2.00000 F2400.00000
G1 X97.605 Y103.270 E2.08383 F1494.937
G1 X98.177 Y103.158 E2.09695
G1 X99.464 Y100.590 E2.16157
G1 X99.438 Y101.671 F7800.000
G1 X99.152 Y102.242 E2.17595 F1494.937
M106 S255
G1 Z1.100 F7800.000
G1 X99.438 Y101.671 E2.19003 F2617.737
G1 X99.464 Y100.590 F7800.000
G1 X98.177 Y103.158 E2.25326 F2617.737
G1 X97.605 Y103.270 E2.26610
G1 X99.275 Y99.938 E2.34815
G1 X99.363 Y98.733 F7800.000
G1 X97.081 Y103.285 E2.46025 F2617.737
G1 X96.610 Y103.195 E2.47080
G1 X99.354 Y97.720 E2.60563
G1 X99.133 Y97.133 E2.61945
G1 X96.188 Y103.007 E2.76412
G1 X95.791 Y102.771 E2.77430
G1 X98.808 Y96.751 E2.92255
G1 X98.420 Y96.496 E2.93277
G1 X95.429 Y102.463 E3.07974
G1 X95.151 Y101.987 E3.09187
G1 X97.983 Y96.337 E3.23101
G1 X97.489 Y96.294 E3.24193
G1 X94.952 Y101.355 E3.36657
G1 X95.130 Y99.970 F7800.000
G1 X96.893 Y96.453 E3.45317 F2617.737
G1 X95.962 Y97.281 F7800.000
G1 X95.703 Y97.797 E3.46588 F2617.737
G1 E1.46588 F2400.00000
G92 E0
G1 X100.629 Y97.586 F7800.000
G1 E2.00000 F2400.00000
G1 X100.844 Y97.157 E2.01057 F2617.737
G1 X101.676 Y96.446 F7800.000
G1 X100.489 Y98.814 E2.06888 F2617.737
G1 X100.651 Y99.440 E2.08311
G1 X102.218 Y96.314 E2.16009
G1 X102.683 Y96.334 E2.17034
G1 X100.409 Y100.871 E2.28207
G1 X100.423 Y101.791 E2.30233
G1 X103.098 Y96.455 E2.43375
G1 X103.462 Y96.678 E2.44314
G1 X100.646 Y102.296 E2.58149
G1 X100.927 Y102.683 E2.59203
G1 X103.780 Y96.992 E2.73218
G1 X104.080 Y97.341 E2.74231
G1 X101.254 Y102.980 E2.88117
G1 X101.636 Y103.167 E2.89053
G1 X104.256 Y97.939 E3.01930
G1 X104.346 Y98.709 E3.03636
G1 X102.065 Y103.259 E3.14841
G1 X102.528 Y103.284 E3.15862
G1 X104.546 Y99.257 E3.25778
G1 X104.761 Y99.778 E3.27018
G1 X103.028 Y103.235 E3.35530
G1 X103.620 Y103.004 E3.36927
G1 X104.931 Y100.387 E3.43373
G1 X104.807 Y101.583 F7800.000
G1 X104.411 Y102.373 E3.45317 F2617.737
G1 Z1.800 F7800.000
G1 X102.901 Y101.099 F7800.000
M106 S255
G1 X102.776 Y101.189 E3.45744 F900.000
G1 X102.628 Y101.244 E3.46183
G1 X102.355 Y101.235 E3.46940
G1 X102.388 Y100.969 E3.47683
G1 X102.488 Y100.665 E3.48573
G1 X102.625 Y100.435 E3.49315
G1 X102.745 Y100.133 E3.50218
G1 X102.920 Y100.619 E3.51654
G1 X102.980 Y100.857 E3.52334
G1 X102.930 Y101.030 E3.52836
M106 S255
G1 X102.452 Y97.980 F7800.000
M106 S255
G1 X102.691 Y98.234 E3.53804 F900.000
G1 X102.754 Y98.881 E3.55611
G1 X102.829 Y99.259 E3.56680
G1 X102.941 Y99.617 E3.57723
G1 X103.212 Y100.234 E3.59596
G1 X103.308 Y100.501 E3.60383
G1 X103.384 Y100.803 E3.61249
G1 X103.361 Y101.053 E3.61945
G1 X103.231 Y101.357 E3.62865
G1 X102.945 Y101.558 E3.63837
G1 X102.650 Y101.651 E3.64695
G1 X102.337 Y101.639 E3.65566
G1 X102.173 Y101.604 E3.66031
G1 X102.057 Y101.487 E3.66488
G1 X101.966 Y101.315 E3.67030
G1 X101.960 Y101.134 E3.67532
G1 X101.991 Y100.880 E3.68242
G1 X102.117 Y100.495 E3.69368
G1 X102.261 Y100.256 E3.70143
G1 X102.340 Y100.055 E3.70744
G1 X102.453 Y99.896 E3.71286
G1 X102.477 Y99.664 E3.71932
G1 X102.552 Y99.401 E3.72693
G1 X102.426 Y99.239 E3.73262
G1 X102.370 Y99.031 E3.73862
G1 X102.265 Y98.970 E3.74198
G1 X102.101 Y98.710 E3.75052
G1 X102.047 Y98.456 E3.75772
G1 X102.056 Y98.208 E3.76463
G1 X102.099 Y98.060 E3.76891
G1 X102.168 Y97.982 E3.77179
G1 X102.279 Y97.944 E3.77505
G1 X102.381 Y97.955 E3.77791
M106 S255
G1 E1.77791 F2400.00000
G92 E0
G1 X97.135 Y100.132 F7800.000
G1 E2.00000 F2400.00000
M106 S255
G1 X97.254 Y100.435 E2.00903 F900.000
G1 X97.391 Y100.664 E2.01645
G1 X97.491 Y100.968 E2.02536
G1 X97.524 Y101.234 E2.03278
G1 X97.252 Y101.244 E2.04035
G1 X97.104 Y101.188 E2.04474
G1 X96.979 Y101.098 E2.04902
G1 X96.912 Y100.942 E2.05374
G1 X96.900 Y100.856 E2.05616
G1 X96.959 Y100.618 E2.06296
G1 X97.109 Y100.203 E2.07523
M106 S255
G1 X97.715 Y97.983 F7800.000
M106 S255
G1 X97.778 Y98.048 E2.07774 F900.000
G1 X97.823 Y98.207 E2.08232
G1 X97.832 Y98.455 E2.08923
G1 X97.778 Y98.709 E2.09644
G1 X97.614 Y98.969 E2.10498
G1 X97.510 Y99.030 E2.10833
G1 X97.454 Y99.239 E2.11434
G1 X97.328 Y99.400 E2.12003
G1 X97.403 Y99.663 E2.12763
G1 X97.426 Y99.895 E2.13409
G1 X97.539 Y100.054 E2.13951
G1 X97.619 Y100.255 E2.14552
G1 X97.762 Y100.494 E2.15328
G1 X97.889 Y100.880 E2.16454
G1 X97.920 Y101.133 E2.17163
G1 X97.914 Y101.314 E2.17666
G1 X97.822 Y101.486 E2.18207
G1 X97.706 Y101.603 E2.18665
G1 X97.543 Y101.639 E2.19129
G1 X97.229 Y101.650 E2.20000
G1 X96.935 Y101.558 E2.20858
G1 X96.648 Y101.356 E2.21830
G1 X96.518 Y101.052 E2.22750
G1 X96.495 Y100.803 E2.23446
G1 X96.571 Y100.500 E2.24312
G1 X96.667 Y100.234 E2.25099
G1 X96.938 Y99.616 E2.26973
G1 X97.051 Y99.258 E2.28015
G1 X97.126 Y98.880 E2.29084
G1 X97.189 Y98.233 E2.30891
G1 X97.424 Y97.982 E2.31847
G1 X97.576 Y97.934 E2.32289
G1 X97.645 Y97.958 E2.32490
M106 S255
G1 Z2.100 F7800.000
G1 E0.32490 F2400.00000
G92 E0
G1 X102.017 Y98.288 F7800.000
G1 E2.00000 F2400.00000
G1 X102.094 Y98.109 E2.00360 F600.000
G1 X102.164 Y98.054 E2.00525
G1 X102.263 Y98.011 E2.00725
G1 X102.361 Y98.008 E2.00906
G1 X102.494 Y98.066 E2.01173
G1 X102.658 Y98.227 E2.01599
G1 X102.689 Y98.305 E2.01753
G1 X102.680 Y98.991 E2.03022
G1 X102.852 Y99.854 E2.04648
G1 X103.024 Y100.546 E2.05967
G1 X103.026 Y100.894 E2.06611
G1 X102.922 Y100.995 E2.06879
G1 X102.638 Y101.172 E2.07498
G1 X102.238 Y101.307 E2.08279
G1 X102.161 Y101.103 E2.08682
G1 X102.161 Y100.863 E2.09126
G1 X102.243 Y100.049 E2.10638
G1 X102.271 Y99.502 E2.11650
G1 X102.197 Y99.021 E2.12551
G1 X102.014 Y98.438 E2.13679
G1 X102.016 Y98.363 E2.13818
G1 X102.206 Y98.241 F7800.000
G1 E0.13818 F2400.00000
G92 E0
G1 X97.620 Y98.012 F7800.000
G1 E2.00000 F2400.00000
G1 X97.716 Y98.053 E2.00192 F600.000
G1 X97.785 Y98.109 E2.00358
G1 X97.862 Y98.287 E2.00717
G1 X97.865 Y98.438 E2.00995
G1 X97.683 Y99.020 E2.02123
G1 X97.609 Y99.501 E2.03023
G1 X97.635 Y100.048 E2.04036
G1 X97.718 Y100.862 E2.05549
G1 X97.719 Y101.102 E2.05993
G1 X97.642 Y101.306 E2.06395
G1 X97.242 Y101.171 E2.07176
G1 X96.957 Y100.994 E2.07795
G1 X96.853 Y100.893 E2.08063
G1 X96.841 Y100.783 E2.08269
G1 X96.854 Y100.544 E2.08710
G1 X97.026 Y99.853 E2.10028
G1 X97.200 Y98.991 E2.11654
G1 X97.191 Y98.304 E2.12924
G1 X97.221 Y98.227 E2.13077
G1 X97.386 Y98.066 E2.13503
G1 X97.545 Y98.009 E2.13815
G1 X97.654 Y98.110 F7800.000
G1 Z2.400 F7800.000
G1 E0.13815 F2400.00000
G92 E0
G1 X102.289 Y98.062 F7800.000
G1 E2.00000 F2400.00000
G1 X102.403 Y98.058 E2.00210 F600.000
G1 X102.547 Y98.180 E2.00560
G1 X102.619 Y98.293 E2.00808
G1 X102.636 Y98.433 E2.01068
G1 X102.587 Y98.752 E2.01664
G1 X102.578 Y99.118 E2.02341
G1 X102.304 Y99.156 E2.02853
G1 X102.198 Y98.819 E2.03507
G1 X102.074 Y98.540 E2.04072
G1 X102.048 Y98.382 E2.04368
G1 X102.083 Y98.232 E2.04653
G1 X102.134 Y98.129 E2.04866
G1 X102.219 Y98.064 E2.05063
G1 X102.361 Y98.150 F7800.000
G1 X102.483 Y99.384 F7800.000
G1 X102.523 Y99.975 E2.06710 F600.000
G1 X102.479 Y100.658 E2.08612
G1 E0.08612 F2400.00000
G92 E0
G1 X97.747 Y98.125 F7800.000
G1 E2.00000 F2400.00000
G1 X97.795 Y98.233 E2.00218 F600.000
G1 X97.831 Y98.389 E2.00514
G1 X97.805 Y98.545 E2.00808
G1 X97.682 Y98.817 E2.01360
G1 X97.577 Y99.153 E2.02010
G1 X97.302 Y99.114 E2.02524
G1 X97.294 Y98.748 E2.03201
G1 X97.244 Y98.430 E2.03795
G1 X97.260 Y98.293 E2.04052
G1 X97.332 Y98.182 E2.04295
G1 X97.460 Y98.077 E2.04601
G1 X97.516 Y98.053 E2.04715
G1 X97.642 Y98.045 E2.04947
G1 X97.687 Y98.079 E2.05052
G1 X97.694 Y98.231 F7800.000
G1 X97.396 Y99.380 F7800.000
G1 X97.350 Y99.978 E2.06719 F600.000
G1 X97.394 Y100.658 E2.08612
G1 Z2.700 F7800.000
G1 E0.08612 F2400.00000
G92 E0
G1 X102.106 Y98.326 F7800.000
G1 E2.00000 F2400.00000
G1 X102.110 Y98.239 E2.00160 F600.000
G1 X102.215 Y98.074 E2.00523
G1 X102.378 Y98.103 E2.00829
G1 X102.504 Y98.196 E2.01118 F600.000
G1 X102.536 Y98.297 E2.01314
G1 X102.540 Y98.493 E2.01678
G1 X102.512 Y98.760 E2.02174
G1 X102.268 Y98.802 E2.02632
G1 X102.147 Y98.547 E2.03153
G1 X102.111 Y98.400 E2.03433
G1 X102.179 Y98.280 F7800.000
G1 E0.03433 F2400.00000
G92 E0
G1 X97.775 Y98.243 F7800.000
G1 E2.00000 F2400.00000
G1 X97.779 Y98.382 E2.00257 F600.000
G1 X97.738 Y98.550 E2.00578
G1 X97.622 Y98.783 E2.01058
G1 X97.386 Y98.746 E2.01500
G1 X97.343 Y98.471 E2.02014
G1 X97.348 Y98.298 E2.02335
G1 X97.382 Y98.198 E2.02529
G1 X97.514 Y98.104 E2.02829
G1 X97.677 Y98.074 E2.03137
G1 X97.737 Y98.178 E2.03359
G1 X97.670 Y98.334 F7800.000
G1 Z3.000 F7800.000
G1 E0.03359 F2400.00000
G92 E0
G1 X102.268 Y98.024 F7800.000
G1 E2.00000 F2400.00000
G1 X102.486 Y98.215 E2.00536 F600.000
G1 X102.526 Y98.339 E2.00776
G1 X102.535 Y98.497 E2.01069
G1 X102.433 Y98.968 E2.01961
G1 X102.128 Y98.530 E2.02948
G1 X102.098 Y98.394 E2.03205
G1 X102.112 Y98.268 E2.03440
G1 X102.228 Y98.087 E2.03837
G1 X102.375 Y98.293 F7800.000
G1 E0.03837 F2400.00000
G92 E0
G1 X97.775 Y98.268 F7800.000
G1 E2.00000 F2400.00000
G1 X97.794 Y98.416 E2.00276 F600.000
G1 X97.771 Y98.527 E2.00487
G1 X97.454 Y98.943 E2.01453
G1 X97.361 Y98.486 E2.02315
G1 X97.370 Y98.335 E2.02596
G1 X97.412 Y98.215 E2.02831
G1 X97.635 Y98.027 E2.03372
G1 X97.738 Y98.203 E2.03748
G1 X97.670 Y98.373 F7800.000
G1 Z3.300 F7800.000
G1 E0.03748 F2400.00000
G92 E0
G1 X102.261 Y98.000 F7800.000
G1 E2.00000 F2400.00000
G1 X102.500 Y98.210 E2.00589 F600.000
G1 X102.548 Y98.368 E2.00893
G1 X102.551 Y98.527 E2.01188
G1 X102.425 Y99.059 E2.02198
G1 X102.094 Y98.539 E2.03338
G1 X102.066 Y98.416 E2.03570
G1 X102.081 Y98.297 E2.03792
G1 X102.222 Y98.064 E2.04296
G1 X102.380 Y98.295 F7800.000
G1 E0.04296 F2400.00000
G92 E0
G1 X97.797 Y98.249 F7800.000
G1 E2.00000 F2400.00000
G1 X97.821 Y98.300 E2.00105 F600.000
G1 X97.838 Y98.435 E2.00356
G1 X97.818 Y98.533 E2.00541
G1 X97.470 Y99.026 E2.01657
G1 X97.356 Y98.499 E2.02654
G1 X97.360 Y98.362 E2.02907
G1 X97.410 Y98.212 E2.03200
G1 X97.653 Y98.005 E2.03789
G1 X97.759 Y98.185 E2.04174
G1 X97.766 Y98.297 F7800.000
G1 Z3.600 F7800.000
G1 E0.04174 F2400.00000
G92 E0
G1 X102.255 Y97.975 F7800.000
G1 E2.00000 F2400.00000
G1 X102.467 Y98.165 E2.00526 F600.000
G1 X102.535 Y98.267 E2.00753
G1 X102.584 Y98.408 E2.01029
G1 X102.588 Y98.545 E2.01282
G1 X102.544 Y98.727 E2.01628
G1 X102.391 Y98.981 E2.02176
G1 X102.147 Y98.724 E2.02830
G1 X102.043 Y98.556 E2.03196
G1 X102.028 Y98.453 E2.03388
G1 X102.047 Y98.330 E2.03618
G1 X102.217 Y98.040 E2.04239
G1 X102.361 Y98.239 F7800.000
G1 E0.04239 F2400.00000
G92 E0
G1 X97.672 Y97.981 F7800.000
G1 E2.00000 F2400.00000
G1 X97.867 Y98.344 E2.00761 F600.000
G1 X97.890 Y98.470 E2.00999
G1 X97.880 Y98.545 E2.01138
G1 X97.709 Y98.785 E2.01684
G1 X97.526 Y98.955 E2.02145
G1 X97.377 Y98.705 E2.02682
G1 X97.335 Y98.516 E2.03041
G1 X97.339 Y98.399 E2.03257
G1 X97.388 Y98.270 E2.03511
G1 X97.459 Y98.167 E2.03744
G1 X97.616 Y98.030 E2.04128
G1 X97.690 Y98.392 F7800.000
G1 Z3.900 F7800.000
G1 E0.04128 F2400.00000
G92 E0
G1 X101.985 Y98.467 F7800.000
G1 E2.00000 F2400.00000
G1 X102.016 Y98.320 E2.00279 F600.000
G1 X102.093 Y98.169 E2.00591
G1 X102.223 Y98.006 E2.00977
