; generated by Slic3r 1.2.9 on 2016-03-15 at 22:25:36

; external perimeters extrusion width = 0.50mm
; perimeters extrusion width = 0.72mm
; infill extrusion width = 0.72mm
; solid infill extrusion width = 0.72mm
; top infill extrusion width = 0.72mm
; support material extrusion width = 0.50mm

M107
M104 S200 ; set temperature
G28 ; home all axes
G1 Z5 F5000 ; lift nozzle

M109 S200 ; wait for temperature to be reached
G21 ; set units to millimeters
G90 ; use absolute coordinates
M82 ; use absolute distances for extrusion
G92 E0
G1 Z0.350 F7800.000
G1 E-2.00000 F2400.00000
G92 E0
G1 X91.844 Y92.597 F7800.000
G1 E2.00000 F2400.00000
G1 X93.057 Y91.503 E2.05054 F1800.000
G1 X95.744 Y90.055 E2.14498
G1 X96.340 Y89.895 E2.16407
G1 X98.083 Y89.669 E2.21846
G1 X102.812 Y89.688 E2.36479
G1 X103.540 Y89.715 E2.38731 F1800.000
G1 X105.100 Y89.972 E2.43624
G1 X105.515 Y90.092 E2.44961
G1 X107.132 Y90.808 E2.50433
G1 X107.496 Y91.031 E2.51753
G1 X108.269 Y91.586 E2.54698
G1 X111.638 Y94.392 E2.68263
G1 X113.120 Y96.142 E2.75360
G1 X113.818 Y97.845 E2.81054
G1 X113.901 Y98.170 E2.82090
G1 X114.074 Y100.457 E2.89186
G1 X113.540 Y102.486 E2.95680
G1 X112.848 Y104.051 E3.00973
G1 X111.573 Y105.955 E3.08064
G1 X110.865 Y106.694 E3.11231
G1 X108.908 Y108.102 E3.18690
G1 X107.014 Y108.996 E3.25173
G1 X106.005 Y109.407 E3.28543
G1 X104.241 Y109.829 E3.34154
G1 X103.741 Y109.878 E3.35708
G1 X103.096 Y109.910 E3.37708
G1 X97.649 Y109.910 E3.54561
G1 X96.396 Y109.791 E3.58454
G1 X95.926 Y109.700 E3.59937
G1 X94.490 Y109.250 E3.64594
G1 X94.068 Y109.062 E3.66023
G1 X93.373 Y108.704 E3.68441
G1 X92.976 Y108.468 E3.69872
G1 X92.065 Y107.817 E3.73336
G1 X91.703 Y107.509 E3.74805
G1 X90.273 Y105.800 E3.81701
G1 X89.995 Y105.324 E3.83406
G1 X89.399 Y103.975 E3.87970
G1 X89.200 Y103.342 E3.90022
G1 X88.949 Y100.508 E3.98824
G1 X89.128 Y99.122 E4.03147
G1 X89.292 Y98.279 E4.05806
G1 X89.866 Y96.106 E4.12761
G1 X90.045 Y95.531 E4.14623
G1 X90.349 Y94.827 E4.16997
G1 X90.606 Y94.313 E4.18774
G1 X91.800 Y92.658 E4.25089
G1 E2.25089 F2400.00000
G92 E0
G1 X96.529 Y97.282 F7800.000
G1 E2.00000 F2400.00000
G1 X96.271 Y97.795 E2.01208 F1800.000
G1 X97.460 Y96.454 F7800.000
G1 X95.698 Y99.969 E2.09481 F1800.000
G1 X95.520 Y101.355 F7800.000
G1 X98.056 Y96.294 E2.21391 F1800.000
G1 X98.550 Y96.337 E2.22434
G1 X95.719 Y101.987 E2.35731
G1 X95.996 Y102.463 E2.36890
G1 X98.987 Y96.496 E2.50934
G1 X99.375 Y96.751 E2.51911
G1 X96.358 Y102.771 E2.66077
G1 X96.756 Y103.007 E2.67050
G1 X99.700 Y97.133 E2.80875
G1 X99.922 Y97.720 E2.82195
G1 X97.178 Y103.195 E2.95080
G1 X97.648 Y103.285 E2.96088
G1 X99.930 Y98.733 E3.06801
G1 X99.842 Y99.938 F7800.000
G1 X98.172 Y103.270 E3.14641 F1800.000
G1 X98.744 Y103.158 E3.15868
G1 X100.032 Y100.590 E3.21911
G1 X100.006 Y101.671 F7800.000
G1 X99.719 Y102.242 E3.23257 F1800.000
G1 E1.23257 F2400.00000
G92 E0
G1 X101.196 Y97.588 F7800.000
G1 E2.00000 F2400.00000
G1 X101.412 Y97.156 E2.01016 F1800.000
G1 X102.244 Y96.445 F7800.000
G1 X101.056 Y98.815 E2.06593 F1800.000
G1 X101.218 Y99.441 E2.07953
G1 X102.785 Y96.313 E2.15314
G1 X103.251 Y96.333 E2.16294
G1 X100.976 Y100.872 E2.26976
G1 X100.990 Y101.793 E2.28912
G1 X103.666 Y96.454 E2.41476
G1 X104.029 Y96.677 E2.42373
G1 X101.213 Y102.297 E2.55600
G1 X101.494 Y102.685 E2.56607
G1 X104.347 Y96.991 E2.70005
G1 X104.648 Y97.340 E2.70973
G1 X101.821 Y102.981 E2.84248
G1 X102.202 Y103.169 E2.85142
G1 X104.824 Y97.938 E2.97452
G1 X104.914 Y98.708 E2.99083
G1 X102.632 Y103.260 E3.09796
G1 X103.095 Y103.285 E3.10772
G1 X105.114 Y99.256 E3.20253
G1 X105.329 Y99.777 E3.21438
G1 X103.595 Y103.236 E3.29577
G1 X104.186 Y103.005 E3.30913
G1 X105.499 Y100.385 E3.37077
G1 X105.375 Y101.582 F7800.000
G1 X104.978 Y102.374 E3.38940 F1800.000
G1 X106.081 Y102.111 F7800.000
G1 X107.398 Y99.483 E3.48037 F1800.000
G1 X106.396 Y98.693 E3.51984
G1 X105.690 Y100.103 E3.56865
G1 Z0.730 F7800.000
G1 X105.499 Y100.387 F7800.000
G1 X104.187 Y103.003 E3.63448 F1670.568
G1 X103.596 Y103.234 E3.64875
G1 X105.328 Y99.779 E3.73570
G1 X105.114 Y99.258 E3.74837
G1 X103.096 Y103.283 E3.84966
G1 X102.633 Y103.258 E3.86009
G1 X104.913 Y98.709 E3.97456
G1 X104.823 Y97.939 E3.99200
G1 X102.203 Y103.167 E4.12353
G1 X101.822 Y102.979 E4.13310
G1 X104.647 Y97.342 E4.27495
G1 X104.347 Y96.993 E4.28531
G1 X101.495 Y102.683 E4.42848
G1 X101.213 Y102.296 E4.43925
G1 X104.029 Y96.679 E4.58059
G1 X103.665 Y96.456 E4.59018
G1 X100.991 Y101.791 E4.72443
G1 X100.977 Y100.871 E4.74514
G1 X103.250 Y96.335 E4.85927
G1 X102.785 Y96.315 E4.86975
G1 X101.219 Y99.439 E4.94837
G1 X101.057 Y98.814 E4.96291
G1 X102.243 Y96.447 E5.02246
G1 X101.411 Y97.158 F7800.000
G1 X101.197 Y97.586 E5.03324 F1670.568
G1 X99.930 Y98.733 F7800.000
G1 X97.648 Y103.285 E5.14778 F1670.568
G1 X97.178 Y103.195 E5.15857
G1 X99.922 Y97.720 E5.29633
G1 X99.700 Y97.133 E5.31045
G1 X96.756 Y103.007 E5.45827
G1 X96.358 Y102.771 E5.46868
G1 X99.375 Y96.751 E5.62015
G1 X98.987 Y96.496 E5.63061
G1 X95.996 Y102.463 E5.78077
G1 X95.719 Y101.987 E5.79316
G1 X98.550 Y96.337 E5.93533
G1 X98.056 Y96.294 E5.94650
G1 X95.520 Y101.355 E6.07384
G1 X95.698 Y99.969 F7800.000
G1 X97.460 Y96.454 E6.16230 F1670.568
G1 X96.529 Y97.282 F7800.000
G1 X96.271 Y97.795 E6.17522 F1670.568
G1 E4.17522 F2400.00000
G92 E0
G1 X99.842 Y99.938 F7800.000
G1 E2.00000 F2400.00000
G1 X98.172 Y103.270 E2.08384 F1670.568
G1 X98.744 Y103.158 E2.09696
G1 X100.032 Y100.590 E2.16157
G1 X100.006 Y101.671 F7800.000
G1 X99.719 Y102.242 E2.17596 F1670.568
G1 E0.17596 F2400.00000
G92 E0
G1 X104.979 Y102.372 F7800.000
G1 E2.00000 F2400.00000
G1 X105.374 Y101.584 E2.01983 F1670.568
G1 E0.01983 F2400.00000
G92 E0
G1 X106.967 Y99.935 F7800.000
G1 E2.00000 F2400.00000
G1 X105.930 Y99.117 E2.02972 F1670.568
G1 X106.174 Y99.745 E2.04488
G1 X106.362 Y100.481 E2.06195
G1 X106.377 Y101.012 E2.07391
G1 X106.349 Y101.207 E2.07835
G1 X106.442 Y101.122 E2.08118
G1 X106.967 Y99.935 E2.11039
G1 X107.481 Y99.807 F7800.000
G1 X105.592 Y98.319 E2.16449 F1670.568
G1 X105.342 Y98.510 E2.17157
G1 X105.296 Y98.489 E2.17270
G1 X105.343 Y98.793 E2.17963
G1 X105.641 Y99.500 E2.19688
G1 X105.777 Y99.877 E2.20590
G1 X105.945 Y100.536 E2.22121
G1 X105.957 Y100.988 E2.23138
G1 X105.882 Y101.526 E2.24360
G1 X105.758 Y101.894 E2.25234
G1 X105.635 Y102.161 E2.25894
G1 X105.998 Y102.031 E2.26761
G1 X106.264 Y101.853 E2.27482
G1 X106.789 Y101.372 E2.29085
G1 X107.481 Y99.807 E2.32933
G1 Z1.100 F7800.000
G1 E0.32933 F2400.00000
G92 E0
G1 X105.499 Y100.386 F7800.000
G1 E2.00000 F2400.00000
G1 X104.187 Y103.004 E2.06445 F1670.392
G1 X103.596 Y103.235 E2.07843
G1 X105.328 Y99.778 E2.16355
G1 X105.114 Y99.257 E2.17595
G1 X103.096 Y103.284 E2.27511
G1 X102.633 Y103.259 E2.28532
G1 X104.913 Y98.709 E2.39737
G1 X104.824 Y97.939 E2.41443
G1 X102.203 Y103.167 E2.54320
G1 X101.822 Y102.980 E2.55256
G1 X104.648 Y97.341 E2.69142
G1 X104.347 Y96.992 E2.70155
G1 X101.495 Y102.683 E2.84170
G1 X101.213 Y102.296 E2.85224
G1 X104.029 Y96.678 E2.99059
G1 X103.665 Y96.455 E2.99998
G1 X100.991 Y101.791 E3.13140
G1 X100.976 Y100.871 E3.15166
G1 X103.250 Y96.334 E3.26339
G1 X102.785 Y96.314 E3.27364
G1 X101.218 Y99.440 E3.35062
G1 X101.056 Y98.814 E3.36485
G1 X102.243 Y96.446 E3.42316
G1 X101.411 Y97.157 F7800.000
G1 X101.196 Y97.586 E3.43373 F1670.392
G1 X99.930 Y98.733 F7800.000
G1 X97.648 Y103.285 E3.54583 F1670.392
G1 X97.178 Y103.195 E3.55639
G1 X99.922 Y97.720 E3.69122
G1 X99.700 Y97.133 E3.70503
G1 X96.756 Y103.007 E3.84971
G1 X96.358 Y102.771 E3.85989
G1 X99.375 Y96.751 E4.00813
G1 X98.987 Y96.496 E4.01836
G1 X95.996 Y102.463 E4.16532
G1 X95.719 Y101.987 E4.17745
G1 X98.550 Y96.337 E4.31659
G1 X98.056 Y96.294 E4.32752
G1 X95.520 Y101.355 E4.45215
G1 X95.698 Y99.969 F7800.000
G1 X97.460 Y96.454 E4.53872 F1670.392
G1 X96.529 Y97.282 F7800.000
G1 X96.271 Y97.795 E4.55136 F1670.392
G1 E2.55136 F2400.00000
G92 E0
G1 X99.842 Y99.938 F7800.000
G1 E2.00000 F2400.00000
G1 X98.172 Y103.270 E2.08205 F1670.392
G1 X98.744 Y103.158 E2.09489
G1 X100.032 Y100.590 E2.15813
G1 X100.006 Y101.671 F7800.000
G1 X99.719 Y102.242 E2.17220 F1670.392
G1 E0.17220 F2400.00000
G92 E0
G1 X104.979 Y102.373 F7800.000
G1 E2.00000 F2400.00000
G1 X105.374 Y101.583 E2.01944 F1670.392
G1 E0.01944 F2400.00000
G92 E0
G1 X106.965 Y99.936 F7800.000
G1 E2.00000 F2400.00000
G1 X105.935 Y99.124 E2.02885 F1670.392
G1 X106.176 Y99.745 E2.04350
G1 X106.364 Y100.480 E2.06022
G1 X106.379 Y101.012 E2.07193
G1 X106.352 Y101.202 E2.07615
G1 X106.440 Y101.121 E2.07878
G1 X106.965 Y99.936 E2.10731
G1 X107.481 Y99.807 F7800.000
G1 X105.592 Y98.319 E2.16026 F1670.392
G1 X105.342 Y98.510 E2.16719
G1 X105.296 Y98.489 E2.16830
G1 X105.343 Y98.793 E2.17508
G1 X105.641 Y99.500 E2.19196
G1 X105.777 Y99.877 E2.20079
G1 X105.945 Y100.536 E2.21577
G1 X105.957 Y100.988 E2.22573
G1 X105.882 Y101.526 E2.23768
G1 X105.758 Y101.894 E2.24624
G1 X105.635 Y102.161 E2.25270
G1 X105.998 Y102.031 E2.26119
G1 X106.264 Y101.853 E2.26824
G1 X106.789 Y101.372 E2.28393
G1 X107.481 Y99.807 E2.32159
M106 S255
G1 Z1.600 F7800.000
G1 X106.999 Y99.927 F7800.000
G1 X105.588 Y98.816 E2.37147 F1378.285
G1 X105.393 Y98.965 E2.37830
G1 X105.177 Y98.866 E2.38489
G1 X104.905 Y99.339 E2.40004
G1 X105.075 Y99.722 E2.41171
G1 X105.200 Y100.068 E2.42192
G1 X105.340 Y100.617 E2.43765
G1 X105.349 Y100.954 E2.44703
G1 X105.288 Y101.385 E2.45912
G1 X105.192 Y101.669 E2.46744
G1 X105.098 Y101.875 E2.47372
G1 X105.304 Y101.862 E2.47947
G1 X105.820 Y101.678 E2.49467
G1 X106.020 Y101.543 E2.50138
G1 X106.464 Y101.138 E2.51807
G1 X106.999 Y99.927 E2.55484
G1 X105.342 Y98.510 F7800.000
G1 X104.235 Y98.001 E2.58868 F1378.285
G1 X104.241 Y98.041 E2.58978
G1 X104.285 Y98.045 E2.59101
G1 X104.275 Y98.294 E2.59794
G1 X104.301 Y98.643 E2.60765
G1 X104.367 Y99.016 E2.61816
G1 X104.444 Y99.260 E2.62529
G1 X104.710 Y99.867 E2.64367
G1 X104.827 Y100.192 E2.65328
G1 X104.948 Y100.669 E2.66696
G1 X104.956 Y100.932 E2.67427
G1 X104.905 Y101.294 E2.68443
G1 X104.827 Y101.524 E2.69116
G1 X104.648 Y101.912 E2.70302
G1 X104.525 Y102.061 E2.70839
G1 X104.346 Y102.197 E2.71463
G1 X104.610 Y102.251 E2.72210
G1 X105.016 Y102.273 E2.73340
G1 X105.384 Y102.250 E2.74365
G1 X105.998 Y102.031 E2.76175
G1 X106.264 Y101.853 E2.77064
G1 X106.789 Y101.372 E2.79044
G1 X107.481 Y99.807 E2.83796
G1 X105.592 Y98.319 E2.90476
G1 X105.342 Y98.510 E2.91350
G1 Z1.800 F7800.000
G1 E0.91350 F2400.00000
G92 E0
G1 X103.468 Y101.099 F7800.000
G1 E2.00000 F2400.00000
M106 S255
G1 X103.343 Y101.189 E2.00427 F900.000
G1 X103.195 Y101.244 E2.00866
G1 X102.923 Y101.235 E2.01623
G1 X102.955 Y100.969 E2.02366
G1 X103.056 Y100.665 E2.03257
G1 X103.193 Y100.435 E2.03998
G1 X103.312 Y100.133 E2.04901
G1 X103.488 Y100.619 E2.06337
G1 X103.547 Y100.857 E2.07017
G1 X103.498 Y101.030 E2.07519
M106 S255
G1 X103.019 Y97.980 F7800.000
M106 S255
G1 X103.258 Y98.234 E2.08487 F900.000
G1 X103.321 Y98.881 E2.10294
G1 X103.396 Y99.259 E2.11363
G1 X103.509 Y99.617 E2.12406
G1 X103.780 Y100.234 E2.14279
G1 X103.876 Y100.501 E2.15066
G1 X103.952 Y100.803 E2.15932
G1 X103.929 Y101.053 E2.16628
G1 X103.798 Y101.357 E2.17548
G1 X103.512 Y101.558 E2.18520
G1 X103.217 Y101.651 E2.19378
G1 X102.904 Y101.639 E2.20250
G1 X102.741 Y101.604 E2.20714
G1 X102.625 Y101.487 E2.21171
G1 X102.533 Y101.315 E2.21713
G1 X102.527 Y101.134 E2.22215
G1 X102.558 Y100.880 E2.22925
G1 X102.685 Y100.495 E2.24051
G1 X102.828 Y100.256 E2.24826
G1 X102.907 Y100.055 E2.25427
G1 X103.021 Y99.896 E2.25969
G1 X103.044 Y99.664 E2.26615
G1 X103.119 Y99.401 E2.27376
G1 X102.993 Y99.240 E2.27945
G1 X102.937 Y99.031 E2.28545
G1 X102.832 Y98.970 E2.28880
G1 X102.669 Y98.710 E2.29735
G1 X102.615 Y98.456 E2.30455
G1 X102.624 Y98.208 E2.31146
G1 X102.666 Y98.060 E2.31574
G1 X102.735 Y97.982 E2.31862
G1 X102.846 Y97.944 E2.32188
G1 X102.948 Y97.955 E2.32474
M106 S255
G1 E0.32474 F2400.00000
G92 E0
G1 X97.702 Y100.132 F7800.000
G1 E2.00000 F2400.00000
M106 S255
G1 X97.821 Y100.435 E2.00903 F900.000
G1 X97.959 Y100.664 E2.01645
G1 X98.059 Y100.968 E2.02536
G1 X98.091 Y101.234 E2.03278
G1 X97.819 Y101.244 E2.04035
G1 X97.671 Y101.188 E2.04474
G1 X97.546 Y101.098 E2.04902
G1 X97.479 Y100.942 E2.05374
G1 X97.467 Y100.856 E2.05616
G1 X97.527 Y100.618 E2.06296
G1 X97.676 Y100.203 E2.07523
M106 S255
G1 X98.283 Y97.983 F7800.000
M106 S255
G1 X98.345 Y98.048 E2.07774 F900.000
G1 X98.390 Y98.207 E2.08232
G1 X98.399 Y98.455 E2.08923
G1 X98.345 Y98.709 E2.09644
G1 X98.182 Y98.969 E2.10498
G1 X98.077 Y99.030 E2.10833
G1 X98.021 Y99.239 E2.11434
G1 X97.895 Y99.400 E2.12003
G1 X97.970 Y99.663 E2.12763
G1 X97.993 Y99.895 E2.13409
G1 X98.107 Y100.054 E2.13951
G1 X98.186 Y100.255 E2.14552
G1 X98.329 Y100.494 E2.15328
G1 X98.456 Y100.880 E2.16454
G1 X98.487 Y101.133 E2.17163
G1 X98.481 Y101.314 E2.17665
G1 X98.389 Y101.486 E2.18207
G1 X98.273 Y101.603 E2.18665
G1 X98.110 Y101.639 E2.19129
G1 X97.797 Y101.650 E2.20000
G1 X97.502 Y101.558 E2.20858
G1 X97.216 Y101.356 E2.21830
G1 X97.085 Y101.052 E2.22750
G1 X97.062 Y100.803 E2.23446
G1 X97.138 Y100.500 E2.24312
G1 X97.235 Y100.234 E2.25099
G1 X97.505 Y99.616 E2.26973
G1 X97.618 Y99.258 E2.28015
G1 X97.693 Y98.880 E2.29084
G1 X97.756 Y98.233 E2.30891
G1 X97.991 Y97.982 E2.31847
G1 X98.143 Y97.934 E2.32289
G1 X98.212 Y97.958 E2.32490
M106 S255
G1 Z2.100 F7800.000
G1 E0.32490 F2400.00000
G92 E0
G1 X102.584 Y98.288 F7800.000
G1 E2.00000 F2400.00000
G1 X102.661 Y98.109 E2.00360 F600.000
G1 X102.731 Y98.054 E2.00525
G1 X102.831 Y98.011 E2.00725
G1 X102.928 Y98.008 E2.00906
G1 X103.061 Y98.066 E2.01173
G1 X103.225 Y98.227 E2.01599
G1 X103.256 Y98.305 E2.01753
G1 X103.247 Y98.991 E2.03022
G1 X103.419 Y99.854 E2.04648
G1 X103.592 Y100.546 E2.05967
G1 X103.594 Y100.894 E2.06611
G1 X103.490 Y100.995 E2.06879
G1 X103.205 Y101.172 E2.07498
G1 X102.805 Y101.307 E2.08279
G1 X102.728 Y101.103 E2.08682
G1 X102.729 Y100.863 E2.09126
G1 X102.810 Y100.049 E2.10638
G1 X102.838 Y99.502 E2.11650
G1 X102.764 Y99.021 E2.12551
G1 X102.582 Y98.438 E2.13679
G1 X102.583 Y98.363 E2.13818
G1 X102.773 Y98.241 F7800.000
G1 E0.13818 F2400.00000
G92 E0
G1 X98.187 Y98.012 F7800.000
G1 E2.00000 F2400.00000
G1 X98.283 Y98.053 E2.00192 F600.000
G1 X98.353 Y98.109 E2.00358
G1 X98.430 Y98.287 E2.00717
G1 X98.432 Y98.438 E2.00995
G1 X98.250 Y99.020 E2.02123
G1 X98.176 Y99.501 E2.03023
G1 X98.203 Y100.048 E2.04036
G1 X98.285 Y100.862 E2.05549
G1 X98.286 Y101.102 E2.05993
G1 X98.209 Y101.306 E2.06395
G1 X97.809 Y101.171 E2.07176
G1 X97.524 Y100.994 E2.07795
G1 X97.420 Y100.893 E2.08063
G1 X97.408 Y100.783 E2.08269
G1 X97.421 Y100.544 E2.08710
G1 X97.593 Y99.853 E2.10028
G1 X97.767 Y98.991 E2.11654
G1 X97.758 Y98.304 E2.12924
G1 X97.789 Y98.227 E2.13077
G1 X97.953 Y98.066 E2.13503
G1 X98.112 Y98.009 E2.13815
G1 X98.221 Y98.110 F7800.000
G1 Z2.100 F7800.000
G1 E0.13815 F2400.00000
G92 E0
G1 X105.342 Y98.510 F7800.000
G1 E2.00000 F2400.00000
G1 X104.235 Y98.001 E2.03384 F973.128
G1 X104.241 Y98.041 E2.03494
G1 X104.285 Y98.045 E2.03617
G1 X104.275 Y98.294 E2.04310
G1 X104.301 Y98.643 E2.05282
G1 X104.367 Y99.016 E2.06332
G1 X104.444 Y99.260 E2.07045
G1 X104.710 Y99.867 E2.08884
G1 X104.827 Y100.192 E2.09844
G1 X104.948 Y100.669 E2.11212
G1 X104.956 Y100.932 E2.11943
G1 X104.905 Y101.294 E2.12959
G1 X104.827 Y101.524 E2.13632
G1 X104.648 Y101.912 E2.14818
G1 X104.525 Y102.061 E2.15355
G1 X104.346 Y102.197 E2.15979
G1 X104.610 Y102.251 E2.16726
G1 X105.016 Y102.273 E2.17857
G1 X105.384 Y102.250 E2.18881
G1 X105.998 Y102.031 E2.20691
G1 X106.264 Y101.853 E2.21580
G1 X106.789 Y101.372 E2.23560
G1 X107.481 Y99.807 E2.28312
G1 X105.592 Y98.319 E2.34992
G1 X105.342 Y98.510 E2.35867
G1 X106.999 Y99.927 F7800.000
G1 X105.588 Y98.816 E2.40855 F973.128
G1 X105.393 Y98.965 E2.41538
G1 X105.177 Y98.866 E2.42197
G1 X104.905 Y99.339 E2.43712
G1 X105.075 Y99.722 E2.44879
G1 X105.200 Y100.068 E2.45900
G1 X105.340 Y100.617 E2.47473
G1 X105.349 Y100.954 E2.48410
G1 X105.288 Y101.385 E2.49619
G1 X105.192 Y101.669 E2.50452
G1 X105.098 Y101.875 E2.51080
G1 X105.304 Y101.862 E2.51654
G1 X105.820 Y101.678 E2.53175
G1 X106.020 Y101.543 E2.53846
G1 X106.464 Y101.138 E2.55515
